X:1
T:Title
%%score ( 1 2 ) { 3 | 4 }
L:1/8
Q:1/4=103
M:4/4
K:G
V:1 treble nm="Grand Piano, Soprano"
V:2 treble 
V:3 bass nm="Choir Pad, The Story Must Be Told"
V:4 bass 
V:1
 [DB]>[Ec] [DB]2 [CA]2 [CE]2 | [CF]2 [B,E]2 [B,D]4 | [DG]>[DA] [DB]2 [Gd]2 [FA]2 | [Fd]2 [Gd]6 | %4
w: By~Ira~David~Sankey * * * *||||
 [DB]>[Dc] [DB]2 [CA]2 [CE]2 | [CF]2 [B,E]2 [B,D]4 | [DG]>[EA] [EB]2 [Dd]2 [GB]2- | [GB][FA] G6 | %8
w: ||||
 [DG]>[DG] [EG]2 [Ec]2 [Ec]2 | [Ge]2 [Ge]2 [Gd]4 | [Gd]>[Gd] [Fd]2 [FA]2 [GB]2 | [G^c]2 [Fd]6 | %12
w: ||||
 [DB]>[Dc] [DB]2 [CA]2 [CE]2 | [CF]2 [B,E]2 [B,D]4 | [DG][EA][DB][Gd]- [Gd]2 [GB]2 | [FA]2 G6 | %16
w: ||||
 [DB]2 [Gd][Gd]- [Gd]2 [DB]2 | z2 d6 | [DB]2 [Dc][Dc]- [Dc]2 [GB]2 | [FA]2 [GB]6 | %20
w: ||||
 [B,D]2 [CE]2 [CF]2 [B,G]2 | [DA]2 [DB]2 [G^c]2 [Fd]2 | G2 [GB][DG]- [DG]2 [EG]2 | [DF]2 [DG]6- | %24
w: ||||
 [DG]2 z2 z4 |] %25
w: |
V:2
 x8 | x8 | x8 | x8 | x8 | x8 | x8 | x8 | x8 | x8 | x8 | x8 | x8 | x8 | x8 | x8 | x8 | %17
 [Dc]2 G2 F2 G2 | x8 | x8 | x8 | x8 | x8 | x8 | x8 |] %25
V:3
 G,>G, F,2 F,2 F,2 | A,2 G,2 G,4 | B,>[K:treble]C D2 D2 D2 | C2[K:bass] B,6 | G,>G, F,2 F,2 F,2 | %5
 A,2 G,2 G,4 | G,>G, G,2 B,2[K:treble] D2- | DC B,6 | B,>[K:bass]B, C2 G,2 G,2 | C2 C2 B,4 | %10
 B,>B, A,2 D2 ^C2 | A,2 A,6 | F,>F, F,2 F,2 F,2 | A,2 G,2 G,4 | G,G,G,B,- B,2 D2 | C2 B,6 | %16
 G,2 B,B,- B,2 G,2 | A,2 B,2 C2 D2 | G,2 A,A,- A,2[K:treble] D2 | D2 D6 | G,2 G,2[K:bass] A,2 G,2 | %21
 D2 G,2 A,2 A,2 | D2 DB,- B,2 A,2 | C2 B,6- | B,2 z2 z4 |] %25
V:4
 z2 D,2 D,2 D,2 | D,2 G,,2 G,,4 | G,>G, G,2 B,,2 D,2 | D,2 G,6 | z2 D,2 D,2 D,2 | D,2 G,,2 G,,4 | %6
 B,,>C, D,2 D,2 D,2- | D,D, G,6 | G,>G, C,2 C,2 C,2 | C,2 G,2 G,4 | G,>G, z2 A,2 A,,2 | A,,2 D,6 | %12
 D,>D, D,2 D,2 D,2 | D,2 G,,2 G,,4 | B,,C,D,D,- D,2 D,2 | D,2 G,6 | z2 G,G,- G,2 z2 | %17
 G,2 G,2 A,2 B,2 | z2 D,D,- D,2 D,2 | D,2 G,6 | G,,2 C,2 A,,2 E,2 | F,2 z2 E,2 D,2 | %22
 B,,2 D,D,- D,2 D,2 | D,2 G,,6- | G,,2 z2 z4 |] %25

